<?xml version="1.0" encoding="UTF-8"?>
<map version="1.10" tiledversion="1.11.2" orientation="orthogonal" renderorder="right-down" width="128" height="15" tilewidth="16" tileheight="16" infinite="0" nextlayerid="3" nextobjectid="1">
 <editorsettings>
  <export target="level5.csv" format="csv"/>
 </editorsettings>
 <tileset firstgid="1" source="metatiles.tsx"/>
 <tileset firstgid="129" source="sprites.tsx"/>
 <layer id="1" name="main" width="128" height="15">
  <data encoding="csv">
32,32,32,32,32,32,32,32,32,32,32,32,32,32,32,32,32,32,32,32,32,32,32,32,32,32,32,32,32,32,32,32,32,32,32,32,32,32,32,32,32,32,32,32,32,32,32,32,32,32,32,32,32,32,32,32,32,32,32,32,32,32,32,32,32,32,32,32,32,32,32,32,32,32,32,32,32,32,32,32,32,32,32,32,32,32,32,32,32,32,32,32,32,32,32,32,32,32,32,32,32,32,32,32,32,32,32,32,32,32,32,32,32,32,32,32,32,32,32,32,32,32,32,32,32,32,32,32,
32,32,32,32,32,32,32,1,1,1,1,1,1,1,1,32,32,1,1,1,1,1,1,1,1,1,1,1,1,1,1,32,32,1,1,1,1,1,1,1,1,1,1,1,1,1,1,32,32,1,1,1,1,1,1,1,1,1,1,1,1,1,1,32,32,1,1,1,1,1,1,1,1,1,1,1,1,1,1,32,32,1,1,1,1,1,1,1,1,1,1,1,1,1,1,32,32,1,1,1,1,1,1,1,1,1,1,1,1,32,32,32,32,32,1,1,1,1,1,1,1,1,1,1,1,1,1,32,
32,32,32,32,32,32,32,1,1,1,1,1,1,1,1,32,32,1,1,1,1,1,1,1,1,1,1,1,1,1,1,32,32,1,1,1,1,1,1,1,1,1,1,1,1,1,1,32,32,1,1,1,1,1,1,1,1,1,1,1,1,1,1,32,32,1,1,1,1,1,1,1,1,1,1,1,1,1,1,32,32,1,1,1,1,1,1,1,1,1,1,1,1,1,1,32,32,1,1,1,1,1,1,1,1,1,1,1,1,32,32,32,32,32,1,1,1,1,1,1,1,1,1,1,1,1,1,32,
32,32,32,32,32,32,32,1,1,1,1,1,1,1,1,32,32,1,1,1,1,1,1,32,32,32,1,1,1,1,1,32,32,1,1,1,1,1,1,1,1,1,1,1,1,1,1,32,32,1,1,1,1,32,32,32,1,1,1,1,1,1,1,1,1,1,1,1,1,1,1,1,1,32,32,32,32,1,1,32,32,1,1,1,1,1,1,1,1,1,1,1,1,1,1,32,32,1,1,1,1,1,1,1,1,1,1,1,1,1,1,32,32,32,1,1,1,1,1,32,32,32,32,32,32,32,1,32,
32,32,32,32,32,32,32,1,1,1,29,1,1,1,1,1,1,1,1,1,1,1,1,1,1,32,1,1,29,1,1,32,32,1,1,30,22,1,1,1,1,1,1,1,1,1,1,1,1,1,1,1,1,1,1,1,1,29,30,22,1,1,1,1,1,1,1,1,1,1,29,29,1,1,1,1,1,1,1,32,32,29,29,1,1,1,1,1,1,1,1,29,29,1,1,1,1,1,1,1,1,1,1,1,1,1,1,1,1,1,1,32,32,32,1,1,1,1,1,1,1,1,1,1,32,32,1,32,
32,1,1,1,1,1,1,1,1,1,1,1,1,1,1,1,1,1,1,1,29,1,1,1,1,32,1,1,1,1,1,32,32,1,1,1,1,1,1,1,1,30,22,1,1,1,1,1,1,1,1,1,1,1,1,1,1,1,1,1,1,1,1,1,1,1,1,29,30,22,1,1,1,1,1,1,1,1,1,32,32,1,1,1,1,1,1,1,1,1,1,1,1,1,1,1,1,1,1,1,29,30,21,22,1,1,1,1,1,1,1,32,32,32,32,32,32,1,1,1,1,1,1,1,32,32,1,32,
32,1,1,1,1,1,1,1,1,1,1,1,1,32,32,32,32,32,1,1,1,1,1,1,1,32,32,1,1,1,1,32,32,1,1,1,1,1,32,32,1,1,1,1,1,1,1,1,1,1,32,32,32,1,1,1,1,1,1,1,1,1,1,32,32,1,1,1,1,1,1,1,1,1,1,1,1,1,1,32,32,1,1,1,1,1,32,32,32,1,1,1,1,1,1,32,32,32,32,1,1,1,1,1,1,1,32,32,1,1,1,32,32,1,1,1,1,1,1,1,32,32,32,32,32,32,1,32,
32,1,1,1,1,1,1,32,32,1,1,1,1,1,1,1,1,1,1,1,1,1,1,1,1,32,32,1,32,1,1,32,32,1,1,1,1,1,1,1,1,1,1,1,1,1,32,32,32,32,1,1,1,1,1,1,1,29,29,1,1,1,1,32,32,1,1,1,29,29,1,1,1,1,1,1,32,32,32,32,32,1,1,1,1,1,1,1,1,1,1,1,1,29,22,1,1,1,1,1,1,1,1,1,1,1,1,1,1,1,1,32,32,1,1,1,1,1,1,1,32,1,1,1,1,1,1,32,
32,1,1,1,1,1,1,1,1,1,1,1,1,1,1,1,1,1,1,1,1,1,1,32,32,32,32,1,32,1,1,32,32,32,32,1,1,1,1,1,1,1,1,1,1,1,1,1,1,1,1,1,1,1,1,1,1,1,1,1,1,1,1,32,32,1,1,1,1,1,1,1,1,1,1,1,1,1,1,1,1,1,1,1,29,29,1,1,1,32,32,32,32,1,1,1,1,1,1,32,32,1,1,29,30,22,1,1,1,1,1,1,1,1,1,1,32,32,32,32,32,1,1,1,1,1,1,32,
32,1,1,1,29,1,1,1,1,32,32,32,32,1,1,1,1,1,1,1,1,1,1,1,1,1,1,1,32,32,32,32,32,1,1,1,1,1,1,1,1,1,32,32,1,1,1,1,1,1,1,29,29,1,1,1,32,32,32,1,1,1,1,32,32,1,1,1,1,1,1,1,30,22,1,1,1,1,1,1,1,1,1,1,1,1,1,1,1,1,1,1,1,1,1,1,1,1,1,1,1,1,1,1,1,1,1,1,1,1,1,1,1,1,1,1,32,32,1,1,1,1,1,1,1,1,1,32,
32,1,1,1,1,1,1,1,1,1,1,1,1,1,1,1,32,32,32,32,32,1,1,1,1,1,1,1,1,1,1,1,1,1,1,1,1,29,30,22,1,1,1,1,1,1,1,1,1,1,1,1,1,1,1,1,1,1,1,1,1,1,1,1,1,1,1,1,1,1,1,1,1,1,1,1,1,1,29,30,29,29,29,1,1,1,1,1,1,1,1,1,1,1,1,32,32,1,1,1,1,1,1,1,1,1,1,1,1,1,1,32,32,1,1,1,32,32,1,1,1,1,1,1,1,1,1,32,
32,1,1,1,1,1,1,1,1,1,1,1,1,1,1,1,1,1,1,1,1,1,1,1,1,1,1,1,1,1,1,1,1,1,1,1,1,1,1,1,1,1,1,1,1,1,1,1,1,29,30,22,1,1,1,1,1,1,1,1,29,29,1,1,1,1,1,1,1,1,1,1,1,1,1,1,1,1,1,1,1,1,1,1,1,1,1,1,29,29,1,1,1,1,1,1,1,1,1,1,1,1,1,1,1,1,1,1,1,1,1,32,32,1,1,1,32,32,1,1,1,1,1,1,1,1,1,32,
32,1,1,1,1,1,1,1,32,32,32,1,1,32,32,1,1,1,1,1,1,1,1,1,1,1,32,32,32,32,32,32,32,32,32,32,1,1,1,1,1,1,1,1,1,32,32,1,1,1,1,1,32,32,1,1,32,32,1,1,1,1,1,1,1,1,1,1,32,32,1,1,32,32,32,32,32,1,1,1,1,1,1,32,32,32,1,1,1,1,32,32,32,1,1,1,1,1,1,1,1,1,1,1,1,1,1,1,1,32,32,32,32,32,32,32,32,32,32,32,32,32,32,32,32,32,32,32,
32,1,1,1,1,1,32,32,32,32,32,1,1,32,32,32,32,32,32,32,32,32,32,1,1,1,32,32,32,32,32,32,32,32,32,32,1,1,1,1,1,1,1,1,1,32,32,1,1,1,1,1,32,32,1,1,32,32,32,32,1,1,32,32,32,32,1,1,32,32,1,1,32,32,32,32,32,1,1,1,1,1,1,32,32,32,1,1,1,1,32,32,32,1,1,1,1,1,1,1,1,1,1,1,1,1,1,1,1,32,32,32,32,32,32,32,32,32,32,32,32,32,32,32,32,32,32,32,
32,32,32,32,32,32,32,32,32,32,32,1,1,32,32,32,32,32,32,32,32,32,32,1,1,1,32,32,32,32,32,32,32,32,32,32,1,1,1,1,1,1,1,1,1,32,32,32,32,32,32,32,32,32,1,1,32,32,32,32,1,1,32,32,32,32,1,1,32,32,1,1,32,32,32,32,32,1,1,1,1,1,1,32,32,32,1,1,1,1,32,32,32,32,32,32,32,32,1,1,1,1,32,32,32,32,32,32,32,32,32,32,32,32,32,32,32,32,32,32,32,32,32,32,32,32,32,32
</data>
 </layer>
 <layer id="2" name="object" width="128" height="15">
  <data encoding="csv">
0,0,0,0,0,0,0,0,0,0,0,0,0,0,0,0,0,0,0,0,0,0,0,0,0,0,0,0,0,0,0,0,0,0,0,0,0,0,0,0,0,0,0,0,0,0,0,0,0,0,0,0,0,0,0,0,0,0,0,0,0,0,0,0,0,0,0,0,0,0,0,0,0,0,0,0,0,0,0,0,0,0,0,0,0,0,0,0,0,0,0,0,0,0,0,0,0,0,0,0,0,0,0,0,0,0,0,0,0,0,0,0,0,0,0,0,0,0,0,0,0,0,0,0,0,0,0,0,
0,0,0,0,0,0,0,0,0,0,0,0,0,0,0,0,0,0,0,0,0,0,0,0,0,0,0,0,0,0,0,0,0,0,0,0,0,0,0,0,0,0,0,0,0,0,0,0,0,0,0,0,0,0,0,0,0,0,0,0,0,0,0,0,0,0,0,0,0,0,0,0,0,0,0,0,0,0,0,0,0,0,0,0,0,0,0,0,0,0,0,0,0,0,0,0,0,0,0,0,0,0,0,0,0,0,0,0,0,0,0,0,0,0,0,0,0,0,0,0,0,0,0,0,0,0,0,0,
0,0,0,0,0,0,0,0,0,0,0,0,0,0,0,0,0,0,0,0,0,0,0,0,0,0,0,0,0,0,0,0,0,0,0,0,0,0,0,0,0,0,0,0,0,0,0,0,0,0,0,0,0,0,0,0,0,0,0,0,0,0,0,0,0,0,0,0,0,0,0,0,0,0,0,0,130,0,0,0,0,0,0,0,0,0,0,0,0,0,0,0,0,0,0,0,0,0,0,0,0,0,0,0,0,0,0,0,0,0,0,0,0,0,0,0,0,0,0,0,0,0,0,0,0,0,0,0,
0,0,0,0,0,0,0,0,0,0,130,0,0,0,0,0,0,0,0,0,0,0,0,0,0,0,0,0,0,0,0,0,0,0,0,0,0,0,0,0,0,0,0,0,0,0,0,0,0,0,0,0,0,0,0,0,0,0,0,0,0,0,0,0,0,0,0,0,0,0,0,0,0,0,0,0,0,0,0,0,0,130,0,0,0,0,0,0,0,0,0,0,0,0,0,0,0,0,130,0,0,0,0,0,0,0,0,0,0,0,0,0,0,0,0,0,0,0,0,0,0,0,0,0,0,0,0,0,
0,0,0,0,0,0,0,0,0,0,0,0,0,0,0,0,0,0,0,0,0,0,0,0,0,0,0,0,0,0,0,0,0,0,0,0,0,0,0,0,0,0,0,0,0,0,0,0,0,0,0,0,0,0,0,0,0,0,0,0,0,0,0,0,0,0,0,0,0,0,0,0,0,0,0,0,0,0,0,0,0,0,0,0,0,0,0,0,0,0,0,0,0,0,0,0,0,0,0,0,0,0,0,0,0,0,0,0,0,0,0,0,0,0,0,0,0,0,0,0,0,0,0,0,0,0,0,0,
0,0,0,0,0,0,0,0,0,0,0,0,0,0,0,0,0,0,0,0,0,0,0,0,0,0,0,0,0,0,0,0,0,0,0,0,0,0,0,0,0,0,0,130,0,0,0,0,0,0,0,0,0,0,0,0,0,0,0,0,0,130,0,0,0,0,0,0,0,0,0,0,0,0,0,0,0,0,0,0,0,0,0,0,0,0,0,0,0,0,0,0,0,0,0,0,0,0,0,0,0,0,0,0,0,0,0,0,0,0,0,0,0,0,0,0,0,0,0,0,0,0,0,130,0,0,0,0,
0,0,0,0,0,0,0,0,0,0,0,0,0,0,0,0,0,0,0,0,0,0,0,0,0,0,0,130,0,0,0,0,0,0,0,0,0,0,0,0,0,0,0,0,0,0,0,0,0,0,0,0,0,0,0,0,0,0,0,0,0,0,0,0,0,0,0,0,0,0,0,0,0,0,0,0,0,0,0,0,0,0,0,0,0,0,0,0,0,0,0,0,0,130,0,0,0,0,0,0,0,0,0,0,0,0,0,0,0,0,0,0,0,0,0,0,0,0,0,0,0,0,0,0,0,0,0,0,
0,0,0,0,0,0,0,0,0,0,0,0,0,0,0,0,0,0,0,0,0,0,0,0,0,0,0,0,0,0,0,0,0,140,140,0,0,0,0,0,0,0,0,0,0,0,0,0,0,0,0,0,0,0,130,0,0,0,0,0,0,0,0,0,0,0,0,0,0,0,0,0,0,0,0,0,0,0,0,0,0,0,0,0,0,0,0,0,0,0,0,0,0,0,0,0,0,0,0,0,0,0,0,0,130,0,0,0,0,0,0,0,0,0,0,0,0,0,0,0,0,0,0,0,0,0,0,0,
0,0,0,0,0,0,137,0,0,0,0,0,0,0,0,0,0,0,0,0,0,0,0,0,0,0,0,0,0,130,130,0,0,0,0,0,0,0,0,0,0,0,0,0,0,0,0,0,0,0,0,0,0,0,0,0,141,0,0,0,0,0,0,0,0,0,0,0,0,0,0,0,0,141,0,0,0,0,0,0,0,0,0,0,0,0,0,0,0,0,0,0,0,0,0,0,0,0,0,0,0,0,0,0,0,0,0,0,130,0,0,0,0,0,0,0,0,0,0,0,0,0,0,0,0,0,0,0,
0,0,0,0,0,0,0,0,0,0,0,0,0,0,0,0,0,0,0,0,0,0,0,0,0,0,0,0,0,0,0,0,0,0,0,0,0,0,0,0,0,0,0,0,0,0,0,0,0,0,0,0,0,0,0,0,0,0,0,0,0,0,0,0,0,0,0,0,0,0,0,0,0,0,0,0,0,0,0,0,0,0,0,0,0,0,0,0,0,0,0,0,0,0,0,0,0,0,0,0,0,0,0,0,0,0,0,0,0,0,0,0,0,0,0,0,0,0,0,0,0,0,0,0,0,0,0,0,
0,0,0,0,0,0,0,0,0,0,0,0,0,0,0,0,0,0,0,0,0,0,0,0,0,0,0,0,0,0,0,0,0,0,0,0,0,0,0,0,0,0,0,0,0,0,0,0,0,0,0,0,0,0,0,0,0,0,0,0,0,0,0,0,0,0,0,0,0,0,0,0,0,0,0,0,0,0,0,0,0,0,0,0,0,0,0,0,0,0,0,0,0,0,0,0,0,0,0,0,0,0,0,0,0,0,0,0,0,0,0,0,0,0,0,0,0,0,0,0,0,0,0,0,0,0,0,0,
0,0,0,0,0,0,0,0,0,0,0,0,0,140,0,0,0,0,0,0,0,0,0,0,0,0,0,0,0,0,0,0,0,0,0,0,0,0,0,0,0,0,0,0,0,0,0,0,0,0,0,0,0,0,0,0,0,0,0,0,0,0,0,0,0,0,0,0,0,0,0,0,0,0,0,0,0,0,0,0,0,0,0,0,0,0,0,0,0,0,140,0,0,0,0,0,0,0,0,0,0,0,0,0,0,0,0,0,0,0,0,0,0,0,0,0,0,0,0,136,0,0,0,0,0,0,0,0,
0,0,0,0,0,0,0,0,0,0,0,0,0,0,0,0,0,0,0,0,0,0,0,0,0,0,0,0,0,0,0,0,0,0,0,0,0,0,0,0,0,0,0,0,0,0,0,0,0,0,0,0,0,0,0,0,0,0,0,0,0,0,0,0,0,0,0,0,0,0,0,0,0,0,0,0,0,0,0,0,0,0,0,0,0,0,0,0,0,0,0,0,0,0,0,0,0,0,0,0,0,0,0,0,0,0,0,0,0,0,0,0,0,0,0,0,0,0,0,0,0,0,0,0,0,0,0,0,
0,0,0,0,0,0,0,0,0,0,0,0,0,0,0,0,0,0,0,0,0,0,0,0,0,0,0,0,0,0,0,0,0,0,0,0,0,0,0,0,0,0,0,0,0,0,0,0,0,0,0,0,0,0,0,0,0,0,0,0,0,0,0,0,0,0,0,0,0,0,0,0,0,0,0,0,0,0,0,0,0,0,0,0,0,0,0,0,0,0,0,0,0,0,0,0,0,0,0,0,0,0,0,0,0,0,0,0,0,0,0,0,0,0,0,0,0,0,0,0,0,0,0,0,0,0,0,0,
0,0,0,0,0,0,0,0,0,0,0,0,0,0,0,0,0,0,0,0,0,0,0,0,0,0,0,0,0,0,0,0,0,0,0,0,0,0,0,0,0,0,0,0,0,0,0,0,0,0,0,0,0,0,0,0,0,0,0,0,0,0,0,0,0,0,0,0,0,0,0,0,0,0,0,0,0,0,0,0,0,0,0,0,0,0,0,0,0,0,0,0,0,0,0,0,0,0,0,0,0,0,0,0,0,0,0,0,0,0,0,0,0,0,0,0,0,0,0,0,0,0,0,0,0,0,0,0
</data>
 </layer>
</map>
