<?xml version="1.0" encoding="UTF-8"?>
<map version="1.10" tiledversion="1.11.2" orientation="orthogonal" renderorder="right-down" width="16" height="135" tilewidth="16" tileheight="16" infinite="0" nextlayerid="3" nextobjectid="1">
 <editorsettings>
  <export format="csv"/>
 </editorsettings>
 <tileset firstgid="1" source="metatiles.tsx"/>
 <tileset firstgid="129" source="sprites.tsx"/>
 <layer id="1" name="main" width="16" height="135">
  <data encoding="csv">
64,64,64,64,64,64,64,64,64,64,64,64,64,64,64,64,
64,64,64,1,1,1,1,1,1,64,1,1,1,1,1,64,
64,64,64,1,1,1,1,1,1,1,1,1,1,1,1,64,
64,64,64,1,1,1,1,1,1,1,1,1,1,1,1,64,
64,64,64,1,1,1,1,64,1,1,1,64,1,1,1,64,
64,64,64,1,1,1,1,1,1,1,1,1,1,1,1,64,
64,64,64,1,1,1,1,1,1,1,1,1,1,1,1,64,
64,64,64,1,1,1,1,1,1,1,1,64,1,1,1,64,
64,64,64,1,1,1,1,1,1,1,1,1,1,1,1,64,
64,64,64,1,1,1,1,64,1,1,1,1,1,1,1,64,
64,64,64,1,1,1,1,1,1,1,1,64,1,1,1,64,
64,64,64,1,1,1,1,1,1,1,1,1,1,1,1,64,
64,64,64,1,1,1,1,1,1,1,1,1,1,1,1,64,
64,1,1,1,1,1,1,1,1,1,1,64,1,1,1,64,
64,1,1,1,1,64,1,1,1,1,1,64,29,29,29,64,
64,64,64,64,64,64,64,64,64,64,64,64,1,1,1,64,
64,64,64,64,64,64,64,64,64,64,64,64,1,1,1,64,
64,64,64,1,1,1,1,1,1,1,1,64,29,29,29,64,
64,64,64,1,1,64,1,1,1,1,1,64,1,1,1,64,
64,64,64,1,1,64,64,1,1,1,1,64,1,1,1,64,
64,64,64,64,1,1,64,64,1,1,1,64,29,29,29,64,
64,64,64,1,1,1,1,64,1,1,1,1,1,1,1,64,
64,1,1,1,64,64,1,64,64,1,1,1,1,1,1,64,
64,1,1,64,1,1,1,64,64,64,64,64,64,64,64,64,
64,1,1,1,1,1,1,64,64,64,64,64,64,1,64,64,
64,1,1,1,1,1,1,64,64,1,1,1,1,1,1,64,
64,64,64,64,1,1,1,64,1,1,1,1,1,1,1,64,
64,64,64,1,1,1,64,64,1,1,1,64,1,1,1,64,
64,64,64,1,1,64,64,1,1,1,1,64,1,1,1,64,
64,64,64,1,1,64,1,1,1,1,1,64,1,1,1,64,
64,64,64,1,1,1,1,1,1,1,64,64,64,1,1,64,
64,64,64,64,64,64,64,64,64,64,64,1,1,1,1,64,
64,64,64,64,64,64,64,64,64,64,64,1,1,1,1,64,
64,1,1,1,1,1,1,1,1,1,1,1,1,1,64,64,
64,1,1,1,1,1,1,1,1,1,1,1,1,1,1,64,
64,1,1,1,1,1,1,1,1,1,1,64,1,1,1,64,
64,1,1,1,1,1,1,1,1,1,1,1,1,1,1,64,
64,1,1,1,1,1,1,1,1,1,1,1,1,1,64,64,
64,1,1,1,1,1,1,1,1,1,1,1,1,1,1,64,
64,1,1,1,1,1,1,1,1,1,1,64,1,1,1,64,
64,1,1,1,1,1,1,1,1,1,1,1,1,1,1,64,
64,64,64,64,64,1,1,1,1,1,1,1,1,1,64,64,
64,64,64,64,64,1,1,1,1,1,1,1,1,1,1,64,
64,64,64,64,64,1,1,1,1,1,1,64,1,1,1,64,
64,64,64,64,64,1,1,64,1,1,1,1,1,1,1,64,
64,1,1,1,1,1,1,1,1,1,1,1,1,1,1,64,
64,1,1,1,1,1,1,1,1,1,1,1,1,1,1,64,
64,64,64,1,1,64,64,64,64,64,64,64,1,1,1,64,
64,64,64,1,64,64,64,64,64,64,64,64,1,1,1,64,
64,64,64,1,1,1,1,64,1,1,1,1,1,1,1,64,
64,64,64,1,1,1,1,64,1,1,1,1,1,1,1,64,
64,1,1,64,1,1,1,1,1,1,1,1,1,1,1,64,
64,1,1,1,1,1,1,1,1,1,1,1,1,1,1,64,
64,64,64,1,1,1,1,64,1,1,1,1,1,1,1,64,
64,64,64,1,1,64,1,64,1,1,1,1,1,1,1,64,
64,1,1,1,1,1,1,1,1,1,1,1,1,1,1,64,
64,1,1,1,1,1,1,1,1,1,1,1,1,1,1,64,
64,64,64,64,1,1,1,64,1,1,1,1,1,1,1,64,
64,64,64,1,1,1,1,64,1,1,1,1,1,1,1,64,
64,1,1,1,1,1,1,1,1,1,1,1,1,1,1,64,
64,1,1,1,64,1,1,1,1,1,1,1,1,1,1,64,
64,64,64,1,1,1,1,64,1,1,1,1,1,1,1,64,
64,64,64,1,1,1,1,64,1,1,1,1,1,1,1,64,
64,64,64,1,1,64,1,1,64,64,64,64,64,64,64,64,
64,64,64,1,1,64,64,1,64,64,64,64,1,1,64,64,
64,64,64,1,1,1,1,1,1,1,1,64,64,1,1,64,
64,64,64,1,1,64,64,64,64,1,1,1,64,64,1,64,
64,64,64,1,1,64,1,1,1,1,1,1,1,64,1,64,
64,64,64,1,1,64,64,1,64,64,64,64,1,64,1,64,
64,64,64,1,1,64,1,1,64,1,1,64,1,1,1,64,
64,64,64,1,1,1,1,1,64,64,1,1,1,64,1,64,
64,64,64,1,64,64,64,1,64,1,1,64,64,64,64,64,
64,64,1,1,64,1,64,1,64,1,64,64,1,1,1,64,
64,64,1,1,64,1,64,1,64,1,1,1,1,64,1,64,
64,64,1,64,64,1,64,1,64,64,64,64,64,64,1,64,
64,64,1,64,1,1,1,1,64,1,1,1,1,1,1,64,
64,64,1,64,64,64,64,1,64,64,1,1,64,64,64,64,
64,64,1,1,1,1,64,1,1,64,1,1,1,1,64,64,
64,64,64,64,64,1,1,64,64,64,64,64,64,1,64,64,
64,64,1,1,64,64,1,64,1,1,1,1,1,1,1,64,
64,64,64,1,1,64,1,64,1,1,64,64,64,64,1,64,
64,64,64,64,1,1,1,1,1,64,64,1,64,1,1,64,
64,64,64,1,64,1,1,64,64,64,1,1,64,1,64,64,
64,64,64,1,64,1,64,1,1,1,1,64,64,1,1,64,
64,64,1,1,1,1,64,1,1,1,1,64,64,1,64,64,
64,64,1,64,1,1,1,64,1,1,1,64,64,1,64,64,
64,64,1,64,1,1,1,1,1,64,1,1,64,1,1,64,
64,64,1,1,1,64,1,64,64,64,1,1,64,64,1,64,
64,64,1,64,1,64,1,1,1,1,64,1,1,1,1,64,
64,64,1,64,1,1,64,64,64,1,1,1,1,1,64,64,
64,64,1,1,64,1,1,1,64,64,1,64,1,1,1,64,
64,64,1,64,1,64,64,1,1,1,1,64,64,1,1,64,
64,64,1,64,1,1,64,64,64,64,64,64,64,1,1,64,
64,64,1,1,64,1,1,1,64,1,1,1,1,1,64,64,
64,64,1,1,1,1,64,1,1,1,1,1,1,1,64,64,
64,64,64,64,64,64,64,1,1,1,1,64,1,1,64,64,
64,1,1,1,64,1,1,1,1,1,1,64,1,64,64,64,
64,1,1,1,1,1,1,1,1,1,64,1,1,1,1,64,
64,1,1,1,1,1,1,1,1,1,1,1,1,1,1,64,
64,1,1,64,1,1,1,64,1,1,1,1,1,1,64,64,
64,1,1,64,1,1,1,1,1,1,1,1,1,1,64,64,
64,1,1,1,1,1,1,1,1,1,1,1,1,1,1,64,
64,1,1,1,1,1,1,1,1,1,64,1,1,1,1,64,
64,1,1,1,1,1,1,64,1,1,1,1,1,1,1,64,
64,1,1,1,1,1,1,1,1,1,1,1,1,1,1,64,
64,1,1,1,1,1,1,1,1,1,1,1,1,1,1,64,
64,1,1,1,1,1,1,1,64,1,1,1,64,64,64,64,
64,1,1,1,1,64,1,1,1,1,1,1,1,1,1,64,
64,1,1,1,1,1,1,1,1,1,1,1,1,1,1,64,
64,1,1,1,1,1,1,1,1,1,1,1,1,1,1,64,
64,1,1,1,1,1,1,64,1,1,1,1,1,1,1,64,
64,1,1,1,1,1,1,64,1,1,64,64,64,64,64,64,
64,64,64,64,64,64,64,64,1,1,1,1,1,1,1,64,
64,1,1,1,1,1,1,1,64,1,1,1,1,1,1,64,
64,1,1,1,1,1,1,1,1,1,1,1,1,1,1,64,
64,1,1,1,1,1,1,64,1,1,1,1,1,1,1,64,
64,1,1,1,1,1,1,1,1,1,64,1,1,1,1,64,
64,1,1,1,1,1,1,1,1,1,1,1,1,1,1,64,
64,1,1,1,1,1,1,64,1,1,1,1,1,1,1,64,
64,1,1,1,1,1,1,1,1,1,1,1,1,64,1,64,
64,1,1,1,1,1,1,1,1,1,64,1,1,1,1,64,
64,1,1,1,1,1,1,64,1,1,1,1,1,1,1,64,
64,1,1,1,1,1,1,1,64,1,1,1,1,1,1,64,
64,1,1,1,1,1,1,1,1,1,1,1,1,1,1,64,
64,1,1,1,1,1,1,1,1,1,1,1,1,64,64,64,
64,1,1,1,1,1,1,1,1,64,1,1,64,64,64,64,
64,1,1,64,64,64,64,64,64,64,1,1,64,64,64,64,
64,1,1,1,1,1,1,1,1,1,1,1,1,1,1,64,
64,64,1,1,1,1,1,1,1,1,1,1,1,1,1,64,
64,64,64,64,64,64,64,64,64,1,1,1,1,1,1,64,
64,64,64,64,64,64,64,64,64,64,64,64,64,1,1,64,
64,1,1,1,1,1,1,1,1,1,1,1,1,1,1,64,
64,1,1,1,1,1,1,1,1,1,1,1,1,1,1,64,
64,64,64,64,64,64,64,64,64,64,64,64,64,64,64,64,
64,64,64,64,64,64,64,64,64,64,64,64,64,64,64,64
</data>
 </layer>
 <layer id="2" name="object" width="16" height="135">
  <data encoding="csv">
0,0,0,0,0,0,0,0,0,0,0,0,0,0,0,0,
0,0,0,0,0,0,0,0,0,0,0,0,0,0,0,0,
0,0,0,0,0,0,0,0,0,0,0,0,0,0,0,0,
0,0,0,0,0,0,0,130,0,0,0,0,0,0,0,0,
0,0,0,0,0,0,0,0,0,0,0,0,0,0,0,0,
0,0,0,0,0,0,0,0,0,0,0,0,0,0,0,0,
0,0,0,0,0,0,0,0,0,0,0,0,0,0,0,0,
0,0,0,0,0,0,0,0,0,0,0,0,0,0,0,0,
0,0,0,0,0,0,0,0,0,0,0,0,0,0,0,0,
0,0,0,0,0,0,0,0,0,0,0,0,0,0,0,0,
0,0,0,0,0,0,0,0,0,0,0,0,0,0,0,0,
0,0,0,0,0,0,0,0,0,0,0,0,0,0,0,0,
0,0,0,0,0,0,0,0,0,0,0,0,0,0,0,0,
0,0,0,0,0,136,0,0,0,0,0,0,0,0,0,0,
0,0,0,0,0,0,0,0,0,0,0,0,0,0,0,0,
0,0,0,0,0,0,0,0,0,0,0,0,0,0,0,0,
0,0,0,0,0,0,0,0,0,0,0,0,0,0,0,0,
0,0,0,0,0,0,0,0,0,0,0,0,0,0,0,0,
0,0,0,0,0,0,0,0,0,0,0,0,0,0,0,0,
0,0,0,0,0,0,0,0,0,0,0,0,0,0,0,0,
0,0,0,0,0,0,0,0,0,0,0,0,0,0,0,0,
0,0,0,0,0,0,0,0,0,0,0,0,0,0,0,0,
0,0,0,0,0,0,0,0,0,0,0,0,0,0,0,0,
0,0,0,0,0,0,0,0,0,0,0,0,0,0,0,0,
0,0,0,0,0,0,0,0,0,0,0,0,0,0,0,0,
0,130,0,0,0,0,0,0,0,0,0,0,0,0,0,0,
0,0,0,0,0,0,0,0,130,0,0,0,0,0,0,0,
0,0,0,0,0,0,0,0,0,0,0,0,0,0,0,0,
0,0,0,0,0,0,0,0,0,0,0,0,0,0,0,0,
0,0,0,0,0,0,0,0,0,0,0,0,0,0,0,0,
0,0,0,0,0,0,0,0,0,0,0,0,0,0,0,0,
0,0,0,0,0,0,0,0,0,0,0,0,0,0,0,0,
0,0,0,0,0,0,0,0,0,0,0,0,0,0,0,0,
0,0,0,0,0,0,0,0,0,0,0,0,0,0,0,0,
0,0,0,0,0,0,0,0,0,0,0,0,0,0,0,0,
0,0,0,0,0,0,0,0,0,0,0,0,0,0,0,0,
0,0,0,0,0,0,0,0,0,0,0,0,0,0,0,0,
0,0,0,0,0,0,0,0,0,0,0,0,0,0,0,0,
0,0,0,0,0,0,0,0,0,0,0,0,0,0,0,0,
0,0,0,0,0,0,0,0,0,0,0,0,0,0,0,0,
0,0,0,0,130,0,0,0,0,0,0,0,0,0,0,0,
0,0,0,0,0,0,0,0,0,0,0,0,0,0,0,0,
0,0,0,0,0,0,0,0,0,0,0,0,0,0,0,0,
0,0,0,0,0,0,0,0,0,0,0,0,0,0,0,0,
0,0,0,0,0,0,0,0,0,0,0,0,0,0,0,0,
0,0,0,0,0,0,0,0,0,0,0,0,0,0,0,0,
0,0,0,0,0,0,0,0,0,0,140,0,0,0,0,0,
0,0,0,0,0,0,0,0,0,0,0,0,0,0,0,0,
0,0,0,0,0,0,0,0,0,0,0,0,0,0,0,0,
0,0,0,0,0,0,0,0,0,0,0,0,0,0,0,0,
0,0,0,0,0,0,0,0,0,0,0,0,0,0,0,0,
0,0,0,0,0,0,0,0,0,0,0,0,0,0,0,0,
0,0,0,0,0,0,0,0,0,0,0,0,0,0,0,0,
0,0,0,0,0,0,0,0,0,0,0,0,0,0,0,0,
0,0,0,0,0,0,0,0,0,0,0,0,0,0,0,0,
0,0,0,0,0,0,0,0,0,0,0,0,0,0,0,0,
0,0,0,0,0,0,0,0,0,0,0,0,0,0,0,0,
0,0,0,0,0,0,0,0,0,0,0,0,0,0,0,0,
0,0,0,0,0,0,0,0,0,0,0,0,0,0,0,0,
0,0,0,0,0,0,0,0,0,0,0,0,0,0,0,0,
0,0,0,0,0,0,0,0,0,0,0,0,0,0,0,0,
0,0,0,0,0,0,0,0,0,0,0,0,0,0,0,0,
0,0,0,0,0,0,0,0,0,0,0,0,139,0,0,0,
0,0,0,0,0,0,0,0,0,0,0,0,0,0,0,0,
0,0,0,0,0,0,0,0,0,0,0,0,0,0,0,0,
0,0,0,0,0,0,0,0,0,0,0,0,0,0,0,0,
0,0,0,0,0,0,0,0,0,0,0,0,0,0,0,0,
0,0,0,0,0,0,0,0,0,0,0,0,0,0,0,0,
0,0,0,0,0,0,0,0,0,0,0,0,0,0,0,0,
0,0,0,0,0,0,0,0,0,0,0,0,0,0,0,0,
0,0,0,0,0,0,0,0,0,0,0,0,0,0,0,0,
0,0,0,0,0,0,0,0,0,0,0,0,0,0,0,0,
0,0,0,0,0,0,0,0,0,0,0,0,0,0,0,0,
0,0,0,0,0,0,0,0,0,0,0,0,0,0,0,0,
0,0,0,0,0,0,0,0,0,0,0,0,0,0,0,0,
0,0,0,0,0,0,0,0,0,0,0,0,0,0,0,0,
0,0,0,0,0,0,0,0,0,0,0,0,0,0,0,0,
0,0,0,0,0,0,0,0,0,0,0,0,0,0,0,0,
0,0,0,0,0,0,0,0,0,0,0,0,0,0,0,0,
0,0,0,0,0,0,0,0,0,0,0,0,0,0,0,0,
0,0,0,0,0,0,0,0,0,0,0,0,0,0,0,0,
0,0,0,0,0,0,0,0,0,0,0,0,0,0,0,0,
0,0,0,0,0,0,0,0,0,0,0,0,0,0,0,0,
0,0,0,0,0,0,0,0,0,0,0,0,0,0,0,0,
0,0,0,0,0,0,0,0,0,0,0,0,0,0,0,0,
0,0,0,0,0,0,0,0,0,0,0,0,0,0,0,0,
0,0,0,0,0,0,0,0,0,0,0,0,0,0,0,0,
0,0,0,0,0,0,0,0,0,0,0,0,0,0,0,0,
0,0,0,0,0,0,0,0,0,0,0,0,0,0,0,0,
0,0,0,0,0,0,0,0,0,0,0,0,0,0,0,0,
0,0,0,0,0,0,0,0,0,0,0,0,0,0,0,0,
0,0,0,0,0,0,0,0,0,0,0,0,0,0,0,0,
0,0,0,0,0,0,0,0,0,0,0,0,0,0,0,0,
0,0,0,0,0,0,0,0,0,0,0,0,0,0,0,0,
0,0,0,0,0,130,0,0,0,0,0,0,0,0,0,0,
0,0,0,0,0,0,0,0,0,0,0,0,0,0,0,0,
0,0,0,0,0,0,0,0,0,0,0,0,0,0,0,0,
0,0,0,0,0,0,0,0,0,0,0,0,0,0,0,0,
0,0,0,0,0,0,0,0,0,0,0,0,0,0,0,0,
0,0,0,0,0,0,0,0,0,0,0,0,0,0,0,0,
0,0,0,0,0,0,0,0,0,0,0,0,0,0,0,0,
0,0,0,0,0,0,0,0,0,0,0,0,0,0,0,0,
0,0,0,0,0,0,0,0,0,0,0,0,0,0,0,0,
0,0,0,0,0,0,0,0,0,0,0,0,0,0,0,0,
0,0,0,0,0,0,0,0,0,0,0,0,0,0,0,0,
0,0,0,0,0,0,0,0,0,0,0,0,0,0,0,0,
0,0,0,0,0,0,0,0,0,0,0,0,0,0,0,0,
0,0,0,0,0,0,0,0,0,0,0,0,0,0,0,0,
0,0,0,0,0,0,0,0,0,0,0,0,0,0,0,0,
0,0,0,0,0,0,0,0,0,0,0,0,0,0,0,0,
0,0,0,0,0,0,0,0,0,0,0,0,139,0,0,0,
0,0,0,0,0,0,0,0,0,0,0,0,0,0,0,0,
0,0,0,0,0,0,0,0,0,0,0,0,0,0,0,0,
0,0,0,0,0,0,0,0,0,0,0,0,0,0,0,0,
0,0,0,0,0,0,0,0,0,0,0,0,0,0,0,0,
0,0,0,0,0,0,0,0,0,0,0,0,0,0,0,0,
0,0,0,0,0,0,0,0,0,0,0,0,0,0,0,0,
0,0,0,0,0,0,0,0,0,0,0,0,0,0,0,0,
0,0,0,0,0,0,0,0,0,0,0,0,0,130,0,0,
0,0,0,0,0,0,0,0,0,0,0,0,0,0,0,0,
0,0,0,0,0,0,0,0,0,0,0,0,0,0,0,0,
0,0,0,0,0,0,0,0,0,0,0,0,0,0,0,0,
0,0,0,0,0,0,0,0,0,0,0,0,0,0,0,0,
0,0,0,0,0,0,0,0,0,0,0,0,0,0,0,0,
0,0,0,0,0,0,0,0,0,0,0,0,0,0,0,0,
0,0,0,130,0,0,0,0,0,0,0,0,0,0,0,0,
0,0,0,0,0,0,0,0,0,0,0,0,0,0,0,0,
0,0,0,0,0,0,0,0,0,0,0,0,0,0,0,0,
0,0,0,0,0,0,0,0,0,0,0,0,0,0,0,0,
0,0,0,0,0,0,0,0,0,0,0,0,0,0,0,0,
0,0,0,0,0,0,0,0,0,0,0,0,0,0,0,0,
0,0,0,0,0,0,0,0,0,0,0,0,0,0,0,0,
0,0,0,0,0,0,0,0,0,0,0,0,0,0,0,0,
0,0,0,0,0,0,0,0,0,0,0,0,0,0,0,0,
0,0,0,0,0,0,0,0,0,0,0,0,0,0,0,0
</data>
 </layer>
</map>
