<?xml version="1.0" encoding="UTF-8"?>
<map version="1.10" tiledversion="1.11.2" orientation="orthogonal" renderorder="right-down" width="128" height="15" tilewidth="16" tileheight="16" infinite="0" nextlayerid="3" nextobjectid="1">
 <editorsettings>
  <export target="level9.csv" format="csv"/>
 </editorsettings>
 <tileset firstgid="1" source="metatiles.tsx"/>
 <tileset firstgid="129" source="sprites.tsx"/>
 <layer id="1" name="main" width="128" height="15">
  <data encoding="csv">
64,64,64,64,64,64,64,64,64,64,64,64,64,64,64,64,64,64,64,64,64,64,64,64,64,64,64,64,64,64,64,64,64,64,64,64,64,64,64,64,64,64,64,64,64,64,64,64,64,64,64,64,64,64,64,64,64,64,64,64,64,64,64,64,64,64,64,64,64,64,64,64,64,64,64,64,64,64,64,64,64,64,64,64,64,64,64,64,64,64,64,64,64,64,64,64,64,64,64,64,64,64,64,64,64,64,64,64,64,64,64,64,64,64,64,64,64,64,64,64,64,64,64,64,64,64,64,64,
64,1,1,1,1,1,1,1,1,1,1,1,1,1,1,1,1,1,1,1,1,1,1,1,64,1,1,1,1,1,1,1,1,1,1,1,1,1,1,1,1,1,1,1,1,1,1,1,1,1,1,1,1,1,1,1,1,1,1,1,1,1,1,64,64,1,1,1,1,1,1,64,1,1,1,1,64,1,1,1,1,1,64,1,1,1,1,1,1,1,1,1,1,1,1,1,1,1,1,64,64,1,1,1,1,1,64,1,1,1,1,64,1,1,1,1,1,1,1,1,1,1,1,1,1,1,1,64,
64,1,1,1,1,1,1,1,1,1,1,1,1,1,1,1,1,1,1,1,1,1,1,1,64,1,1,1,1,1,1,1,1,1,1,1,1,1,1,1,1,1,1,1,1,1,1,1,1,1,1,1,1,1,1,1,1,1,1,1,1,1,1,64,64,1,1,1,61,62,1,64,1,1,1,1,64,1,1,1,1,1,64,1,1,1,1,1,1,1,1,1,1,1,1,1,1,1,1,1,1,1,1,1,1,1,64,1,1,1,1,64,1,1,1,1,1,1,1,1,1,1,1,1,1,1,1,64,
64,1,1,1,1,1,1,1,1,1,1,1,1,1,1,1,1,1,1,1,1,1,1,1,64,1,1,1,1,1,1,1,1,1,1,1,1,1,1,1,1,1,1,1,1,1,1,1,1,1,1,1,1,1,1,1,1,1,1,1,1,1,1,64,64,64,1,1,1,1,1,64,1,1,64,1,64,1,64,64,64,1,64,64,64,1,64,64,64,64,1,1,64,1,64,1,1,1,1,1,1,1,1,1,1,1,64,1,1,1,1,64,1,1,1,1,1,1,1,1,1,1,1,1,1,1,1,64,
64,1,1,1,64,1,1,64,1,1,64,1,1,64,64,64,64,64,64,64,1,1,1,1,64,1,1,64,64,64,64,64,64,1,1,64,1,1,1,64,1,1,1,64,1,1,1,64,64,1,1,1,1,1,1,1,1,1,1,1,1,1,1,64,64,1,1,1,64,64,1,64,64,61,64,1,64,1,64,1,1,1,1,1,64,1,1,1,1,1,64,64,64,1,64,64,64,1,1,1,1,1,1,1,1,1,1,1,1,1,1,64,1,1,1,1,1,1,1,1,1,1,1,1,1,1,1,64,
64,1,1,1,1,1,1,1,1,1,1,1,1,1,1,64,64,1,1,1,1,1,1,1,64,1,1,1,1,1,1,64,64,1,1,1,1,1,61,62,61,62,1,1,1,1,1,64,64,1,1,1,1,1,1,1,1,1,1,1,1,1,1,64,64,1,1,1,64,1,1,1,1,1,64,1,1,1,64,1,1,1,1,1,64,1,1,1,1,1,1,1,1,1,1,64,64,64,64,1,1,64,64,1,1,1,1,1,1,1,1,64,1,1,1,1,1,1,1,1,1,1,1,1,1,1,1,64,
64,64,1,1,1,1,1,1,1,1,1,1,1,1,1,64,64,1,1,1,1,1,1,1,64,1,1,1,1,1,1,64,64,1,1,1,1,1,1,1,1,1,1,1,1,1,1,64,64,1,1,1,1,1,1,1,1,1,1,1,1,1,1,64,64,1,1,1,64,1,1,1,1,1,64,1,1,1,64,1,64,64,64,1,64,64,64,64,1,1,1,1,1,1,1,64,1,1,1,1,1,1,1,1,1,1,1,1,1,1,1,1,1,1,1,1,1,1,1,1,1,1,1,1,1,1,1,64,
64,1,1,1,1,1,1,1,1,1,1,1,1,1,1,64,64,1,1,1,1,1,1,64,64,1,1,1,1,1,1,64,64,1,1,1,1,1,1,1,1,1,1,1,1,1,1,64,64,1,1,1,1,1,1,1,1,1,1,1,1,1,1,64,64,61,64,61,64,64,64,64,64,64,64,64,64,64,64,1,1,1,64,1,1,1,1,64,1,64,64,1,1,64,1,64,1,1,1,1,1,1,1,1,1,1,64,1,1,1,1,1,1,1,1,1,1,1,1,1,1,1,1,1,1,1,1,64,
64,1,1,1,64,1,1,1,1,64,1,1,1,1,1,64,64,1,1,1,64,64,64,64,64,64,64,64,1,1,1,64,64,1,1,1,1,1,1,1,1,1,1,1,1,1,1,64,64,64,64,1,1,64,64,1,1,64,64,1,1,64,64,64,64,1,64,1,1,1,1,1,1,1,1,1,1,1,64,1,1,1,64,1,1,1,1,64,1,1,1,1,1,1,1,64,1,1,1,64,1,1,1,1,1,1,1,1,1,1,64,64,64,1,1,64,1,1,64,1,1,64,1,1,1,1,1,64,
64,1,1,1,1,1,1,1,1,1,1,1,1,1,64,64,64,1,1,1,1,1,1,1,1,1,1,1,1,1,1,64,64,1,1,1,1,1,1,1,1,1,1,1,1,1,1,64,64,1,1,1,1,1,1,1,1,1,1,1,1,1,1,64,64,1,64,1,1,61,62,61,62,1,1,1,1,1,64,1,1,1,64,64,64,64,1,64,64,1,1,64,64,1,1,64,1,1,1,1,1,1,1,1,1,1,1,1,1,1,1,1,64,1,1,1,1,1,61,62,61,62,1,1,1,1,1,64,
64,61,62,61,62,61,62,61,62,61,62,61,62,1,1,64,64,61,62,61,62,1,1,1,1,1,61,62,61,62,1,64,64,1,1,1,1,1,1,1,1,1,1,61,62,61,62,64,64,1,1,1,1,1,1,1,1,1,1,1,1,61,62,64,64,64,64,64,64,64,62,64,64,64,64,64,64,62,64,64,64,1,1,1,1,64,64,64,1,1,1,64,1,1,1,64,1,1,1,1,1,61,62,1,1,1,1,61,62,1,1,1,64,1,1,1,1,1,1,1,1,1,1,1,1,1,1,64,
64,1,1,1,1,1,1,1,1,1,1,1,1,1,1,64,64,1,1,1,1,1,1,1,1,1,1,1,1,1,1,64,64,1,1,1,1,1,1,1,1,64,64,64,64,1,1,1,1,1,1,1,1,1,1,1,1,1,1,1,1,1,1,1,1,1,1,1,1,61,1,64,1,1,1,1,1,1,64,1,1,1,1,1,1,1,1,1,1,1,1,1,1,64,1,64,1,1,1,1,1,1,1,1,1,1,1,1,1,1,1,1,64,1,1,1,1,1,1,1,1,1,1,1,1,1,1,64,
64,61,62,61,62,61,62,61,62,61,62,61,62,1,1,64,64,61,62,61,62,61,61,61,62,61,62,61,62,61,62,64,64,61,62,61,62,61,62,61,62,64,64,64,64,1,1,1,1,61,62,61,62,61,62,61,62,61,62,61,62,61,62,1,1,61,62,61,62,61,62,64,1,1,62,61,62,61,64,1,1,61,62,1,1,1,1,1,1,64,62,61,62,61,62,64,1,61,62,61,62,61,62,61,62,61,62,61,62,61,62,1,64,61,62,61,62,61,62,61,62,61,62,61,62,61,62,64,
64,64,64,64,64,64,64,64,64,64,64,64,64,1,1,64,64,64,64,64,64,64,61,61,61,61,64,64,64,64,64,64,64,1,1,1,1,1,1,1,1,64,64,64,64,1,1,64,64,64,64,61,61,64,64,61,61,64,64,61,61,64,64,64,64,64,64,64,64,64,64,64,1,1,1,1,1,1,64,1,1,1,64,64,1,1,1,64,64,64,64,64,1,1,1,64,1,1,1,1,1,1,1,1,1,1,1,1,1,1,1,1,64,61,61,61,61,61,61,61,61,61,61,61,61,61,61,64,
64,64,64,64,64,64,64,64,64,64,64,64,64,1,1,64,64,64,64,64,64,64,61,61,61,61,64,64,64,64,64,64,64,1,1,1,1,1,1,1,1,64,64,64,64,1,1,64,64,64,64,61,61,64,64,61,61,64,64,61,61,64,64,64,64,64,64,64,64,64,64,64,64,64,64,64,64,64,64,64,64,64,64,64,64,64,64,64,64,64,64,64,64,64,64,64,1,1,1,1,1,1,1,1,1,1,1,1,1,1,1,1,64,61,61,61,61,61,61,61,61,61,61,61,61,61,61,64
</data>
 </layer>
 <layer id="2" name="object" width="128" height="15">
  <data encoding="csv">
0,0,0,0,0,0,0,0,0,0,0,0,0,0,0,0,0,0,0,0,0,0,0,0,0,0,0,0,0,0,0,0,0,0,0,0,0,0,0,0,0,0,0,0,0,0,0,0,0,0,0,0,0,0,0,0,0,0,0,0,0,0,0,0,0,0,0,0,0,0,0,0,0,0,0,0,0,0,0,0,0,0,0,0,0,0,0,0,0,0,0,0,0,0,0,0,0,0,0,0,0,0,0,0,0,0,0,0,0,0,0,0,0,0,0,0,0,0,0,0,0,0,0,0,0,0,0,0,
0,0,0,0,0,0,0,0,0,0,0,0,0,0,0,0,0,0,0,0,0,0,0,0,0,0,0,0,0,0,0,0,0,0,0,0,0,0,0,0,0,0,0,0,0,0,0,0,0,0,0,0,0,0,0,0,0,0,0,0,0,0,0,0,0,0,0,0,0,0,0,0,0,0,0,0,0,0,0,0,0,0,0,0,0,0,0,0,0,0,0,0,0,0,0,0,0,0,0,0,0,0,0,0,0,0,0,0,0,0,0,0,0,0,0,0,0,0,0,0,0,0,0,0,0,0,0,0,
0,0,0,0,0,0,0,0,0,0,0,0,0,0,0,0,0,0,0,0,0,0,0,0,0,0,0,0,0,0,0,0,0,0,0,0,0,0,0,0,0,0,0,0,0,0,0,0,0,0,0,0,0,0,0,0,0,0,0,0,0,0,0,0,0,0,0,0,0,0,0,0,0,0,0,0,0,0,0,0,0,0,0,0,0,0,0,0,0,0,0,0,0,0,0,0,0,0,0,0,0,0,0,0,0,0,0,0,0,0,0,0,0,0,0,0,0,0,0,0,0,0,0,0,0,0,0,0,
0,0,0,0,0,0,0,0,0,0,0,0,0,0,0,0,0,0,0,0,0,0,0,0,0,0,0,0,0,0,0,0,0,0,0,0,0,0,0,0,0,0,0,0,0,0,0,0,0,0,0,0,0,0,0,0,0,0,0,0,0,0,0,0,0,0,0,0,0,0,0,0,0,0,0,0,0,0,0,0,0,0,0,0,0,0,0,0,0,0,0,0,0,0,0,0,0,0,0,0,0,0,0,0,0,0,0,0,0,0,0,0,0,0,0,0,0,0,0,0,0,0,0,0,0,0,0,0,
0,0,0,0,0,0,0,0,0,0,0,0,0,0,0,0,0,0,0,0,0,0,0,0,0,0,0,0,0,0,0,0,0,0,0,0,0,0,0,0,0,0,0,0,0,0,0,0,0,0,0,0,0,0,0,0,0,0,0,0,0,0,0,0,0,0,0,0,0,0,0,0,0,0,0,0,0,0,0,0,0,0,0,0,0,0,0,0,0,0,0,0,0,0,0,0,0,0,0,0,0,0,0,0,0,0,0,0,0,0,0,0,0,0,0,0,0,0,0,0,0,0,0,0,0,0,0,0,
0,130,0,0,0,0,0,0,0,0,0,0,0,0,0,0,0,0,0,0,0,0,0,0,0,0,0,0,0,0,0,0,0,0,0,0,0,0,0,0,0,0,0,0,0,0,0,0,0,0,0,0,0,0,0,0,0,0,0,0,0,0,0,0,0,0,0,0,0,0,0,0,0,0,0,0,0,0,0,0,0,0,0,0,0,0,0,0,0,0,0,0,0,0,0,0,0,0,0,0,0,0,0,0,0,0,0,0,0,0,0,0,0,0,0,0,0,0,0,0,0,0,0,0,0,0,0,0,
0,0,0,0,0,0,0,0,0,0,0,0,0,0,0,0,0,0,0,0,0,0,0,0,0,0,0,0,0,0,0,0,0,0,0,0,0,0,0,0,0,0,0,0,0,0,0,0,0,0,0,0,0,0,0,0,0,0,0,0,0,0,0,0,0,0,0,0,0,0,0,0,0,0,0,0,0,0,0,0,0,0,0,0,0,0,0,0,0,0,0,0,0,0,0,0,0,0,0,0,0,0,0,0,0,0,0,0,0,0,0,0,0,0,0,0,0,0,0,0,0,0,0,0,0,0,0,0,
0,0,0,0,0,0,0,0,0,0,0,0,0,0,0,0,0,0,0,0,0,0,0,137,0,0,0,0,0,0,0,0,0,0,0,0,0,0,0,0,0,0,0,0,0,0,0,0,0,0,130,0,0,0,130,0,0,0,130,0,0,0,130,0,0,0,0,0,0,0,0,0,0,0,0,0,0,0,0,0,0,0,0,0,0,0,0,0,0,0,0,0,0,0,0,0,0,0,0,0,0,0,0,0,0,0,0,0,0,0,0,0,0,0,0,0,0,0,0,0,0,0,0,0,0,0,0,0,
0,0,0,0,0,0,0,0,0,0,0,0,0,0,0,0,0,0,0,0,0,0,0,0,0,0,0,0,0,0,0,0,0,0,0,0,0,0,0,0,0,0,0,0,0,0,0,0,0,0,0,0,0,0,0,0,0,0,0,0,0,0,0,0,0,0,0,0,0,0,0,0,0,0,0,0,0,0,0,0,0,0,0,0,0,0,0,0,0,0,0,0,0,0,0,0,0,0,0,0,0,0,0,0,0,0,0,0,0,0,0,0,0,0,0,0,0,0,0,0,0,0,0,0,81,0,0,0,
0,0,0,0,0,0,0,0,0,0,0,0,0,0,0,0,0,0,0,0,0,0,0,0,0,0,0,0,0,0,0,0,0,0,0,0,0,0,0,0,0,0,0,0,0,0,0,0,0,0,0,0,0,0,0,0,0,0,0,0,0,0,0,0,0,0,0,0,0,0,0,0,0,0,0,0,0,0,0,0,0,0,0,0,0,0,0,0,0,0,0,0,0,0,0,0,0,0,0,0,0,0,0,0,0,0,0,0,0,0,0,0,0,0,0,0,0,0,0,0,0,0,0,0,0,0,0,0,
0,0,0,0,0,0,0,0,0,0,0,0,0,0,0,0,0,0,0,0,0,0,0,130,0,0,0,0,0,0,0,0,0,0,0,0,0,0,0,0,0,0,130,130,0,0,0,0,0,0,0,0,0,0,0,0,0,0,0,0,0,0,0,0,0,0,0,0,0,0,0,0,0,0,0,0,0,0,0,0,0,0,0,0,0,0,0,0,0,0,0,0,0,0,0,0,0,0,0,0,0,0,0,0,0,0,0,0,0,0,0,0,0,0,0,0,0,0,0,0,0,0,0,0,0,0,0,0,
0,0,0,0,0,0,0,0,0,0,0,0,0,0,0,0,0,0,0,0,0,0,0,0,0,0,0,0,0,0,0,0,0,0,0,0,0,0,0,0,0,0,0,0,0,0,0,0,0,0,0,0,0,0,0,0,0,0,0,0,0,0,0,0,0,0,0,0,0,0,0,0,0,0,0,0,0,0,0,0,0,0,0,0,0,0,0,0,0,0,0,0,0,0,0,0,0,0,0,0,0,0,0,0,0,0,0,0,0,0,0,0,0,0,0,0,0,0,0,0,0,0,0,0,0,0,0,0,
0,0,0,0,0,0,0,0,0,0,139,0,0,0,0,0,0,0,0,0,0,0,0,0,0,0,0,0,139,0,0,0,0,0,0,0,0,0,0,0,0,0,0,0,0,0,0,0,0,0,0,0,0,0,0,0,0,0,0,0,0,0,0,0,0,0,0,0,0,0,0,0,0,0,0,0,0,0,0,0,0,0,0,0,0,0,0,0,0,0,0,0,0,0,0,0,0,0,0,0,0,0,0,0,0,0,0,0,0,0,0,0,0,0,0,0,0,0,0,0,0,0,0,0,0,0,0,0,
0,0,0,0,0,0,0,0,0,0,0,0,0,0,0,0,0,0,0,0,0,0,0,0,0,0,0,0,0,0,0,0,0,0,0,0,0,0,0,0,0,0,0,0,0,0,0,0,0,0,0,0,0,0,0,0,0,0,0,0,0,0,0,0,0,0,0,0,0,0,0,0,0,0,0,0,0,0,0,0,0,0,0,0,0,0,0,0,0,0,0,0,0,0,0,0,0,0,0,0,0,0,0,0,0,0,0,0,0,0,0,0,0,0,0,0,0,0,0,0,0,0,0,0,0,0,0,0,
0,0,0,0,0,0,0,0,0,0,0,0,0,0,0,0,0,0,0,0,0,0,0,0,0,0,0,0,0,0,0,0,0,0,0,0,0,0,0,0,0,0,0,0,0,0,0,0,0,0,0,0,0,0,0,0,0,0,0,0,0,0,0,0,0,0,0,0,0,0,0,0,0,0,0,0,0,0,0,0,0,0,0,0,0,0,0,0,0,0,0,0,0,0,0,0,0,0,0,0,0,0,0,0,0,0,0,0,0,0,0,0,0,0,0,0,0,0,0,0,0,0,0,0,0,0,0,0
</data>
 </layer>
</map>
