<?xml version="1.0" encoding="UTF-8"?>
<map version="1.10" tiledversion="1.11.2" orientation="orthogonal" renderorder="right-down" width="128" height="15" tilewidth="16" tileheight="16" infinite="0" nextlayerid="3" nextobjectid="1">
 <editorsettings>
  <export target="level10.csv" format="csv"/>
 </editorsettings>
 <tileset firstgid="1" source="metatiles.tsx"/>
 <tileset firstgid="129" source="sprites.tsx"/>
 <layer id="1" name="main" width="128" height="15">
  <data encoding="csv">
63,63,63,63,63,63,63,63,63,63,63,63,63,63,63,63,63,63,63,63,63,63,63,63,63,63,63,63,63,63,63,63,63,63,63,63,63,63,63,63,63,63,63,63,63,63,63,63,63,63,63,63,63,63,63,63,63,63,63,63,63,63,63,63,63,63,63,63,63,63,63,63,63,63,63,63,63,63,63,63,63,63,63,63,63,63,63,63,63,63,63,63,63,63,63,63,63,64,64,64,64,64,64,64,64,64,64,64,64,64,64,63,63,63,63,63,63,63,63,63,63,63,63,63,63,63,63,63,
63,1,1,1,1,1,1,1,1,1,1,1,1,1,1,63,63,1,1,1,1,1,1,1,1,1,1,1,1,1,1,63,63,1,1,1,1,1,1,1,1,1,1,1,1,1,1,63,63,1,1,1,1,1,1,1,1,1,1,1,1,1,1,63,63,1,1,1,1,1,1,1,1,1,1,1,1,1,1,63,63,1,1,1,1,1,1,1,1,1,1,1,1,1,1,63,63,64,64,64,64,64,64,64,64,64,64,64,64,64,64,63,63,1,1,1,1,1,1,1,1,1,1,1,1,1,1,63,
63,1,1,1,1,1,1,1,1,1,1,1,1,1,1,63,63,1,1,1,1,1,1,1,1,1,1,1,1,1,1,63,63,1,1,63,63,1,1,1,1,1,1,63,63,1,1,63,63,1,1,1,1,1,1,1,1,1,1,1,1,1,1,63,63,1,1,1,61,62,1,1,1,1,1,1,1,1,1,63,63,1,1,1,1,1,1,1,1,1,1,1,1,1,1,63,63,64,64,64,64,64,64,64,64,64,64,64,64,64,64,63,63,1,1,1,1,1,1,1,1,1,1,1,1,1,1,63,
63,1,1,1,1,1,1,1,1,1,1,1,1,1,1,63,63,1,1,1,1,1,1,1,1,1,1,1,1,1,1,63,63,1,1,63,63,1,1,1,1,1,1,63,63,1,1,63,63,1,1,1,1,1,1,1,1,1,1,1,1,1,1,63,63,1,1,1,1,1,1,1,1,61,62,1,1,1,1,63,63,1,1,1,1,1,1,1,1,1,1,1,1,1,1,63,63,64,64,64,64,64,64,64,64,64,64,64,64,64,64,63,63,1,1,1,1,1,1,1,1,1,1,1,1,1,1,63,
63,1,1,1,1,1,1,1,1,1,1,1,1,1,1,63,63,1,1,1,1,1,1,1,1,1,1,1,1,1,1,63,63,1,1,1,1,1,1,1,1,1,1,1,1,1,1,63,63,61,62,1,1,1,1,61,62,1,1,1,1,1,1,63,63,1,1,1,1,1,1,1,1,1,1,1,1,1,1,63,63,1,1,63,63,63,1,1,1,1,63,63,63,1,1,63,63,63,63,63,63,63,63,63,63,63,63,63,63,63,63,63,63,1,1,1,1,61,62,1,1,1,1,1,1,1,1,63,
63,1,1,1,1,1,1,1,1,1,1,1,1,1,1,63,63,61,62,1,1,1,61,62,1,1,1,61,62,1,1,63,63,1,1,1,1,1,1,61,62,1,1,1,1,1,1,63,63,1,1,1,1,1,1,1,1,1,1,1,1,1,1,63,63,61,62,1,1,1,1,1,1,1,1,61,62,1,1,63,63,1,1,63,1,1,1,1,1,1,1,1,63,1,1,62,62,1,1,1,1,1,1,1,1,1,1,1,1,1,1,1,1,1,1,1,1,1,1,1,1,61,62,1,1,1,1,63,
63,1,1,1,1,1,1,1,1,1,1,1,1,1,1,63,63,1,1,1,1,1,1,1,1,1,1,1,1,1,1,63,63,1,1,1,1,1,1,1,1,1,1,1,1,61,62,63,63,1,1,1,1,61,62,1,1,1,61,62,1,1,1,63,63,1,1,1,1,1,1,61,62,1,1,1,1,1,1,63,63,1,1,1,1,1,1,1,1,1,1,1,1,1,1,62,62,1,1,1,61,62,1,1,1,61,62,1,1,1,1,1,1,1,1,1,1,1,1,1,1,1,1,1,1,1,1,63,
63,1,1,1,1,1,1,1,1,1,1,1,1,1,1,63,63,1,1,1,1,1,1,1,1,1,1,1,1,1,1,63,63,1,1,1,1,61,62,1,1,1,1,1,1,1,1,63,63,1,1,1,1,1,1,1,1,1,1,1,1,1,1,63,63,1,1,1,1,1,1,1,1,1,1,1,1,1,1,63,63,1,1,1,1,1,1,1,1,1,1,1,1,1,1,62,62,1,1,1,1,1,1,1,1,1,1,1,1,1,1,1,1,1,1,1,1,1,1,1,1,1,1,1,1,1,1,63,
63,1,1,1,1,1,1,1,1,1,1,1,1,1,1,63,63,1,1,1,1,1,1,1,1,1,1,1,1,1,1,63,63,61,62,1,1,1,1,1,1,1,1,1,1,1,1,63,63,1,1,1,1,1,1,1,1,1,1,1,1,61,62,63,63,1,1,61,62,1,1,1,1,1,1,1,1,1,1,63,63,1,1,63,63,63,1,1,1,1,63,63,63,1,1,62,62,1,1,1,1,1,1,1,1,1,1,1,1,1,1,1,1,1,1,1,1,1,1,1,1,1,1,1,1,1,1,63,
63,1,1,1,1,1,1,1,1,1,1,1,1,1,1,63,63,1,1,1,1,1,1,1,1,1,1,1,1,1,1,63,63,1,1,1,1,1,1,1,1,1,1,1,1,1,1,63,63,1,1,1,1,1,1,1,1,1,1,1,1,1,1,63,63,1,1,1,1,1,1,1,1,1,1,1,1,61,62,63,63,1,1,1,1,1,1,1,1,1,1,1,1,1,1,62,62,61,62,1,1,1,61,62,1,1,1,61,62,1,1,1,1,1,1,1,1,1,1,1,1,1,1,1,1,1,1,63,
63,1,1,1,1,1,1,1,1,1,1,1,1,1,1,63,63,1,1,1,1,1,1,1,1,1,1,1,1,1,1,63,63,1,1,1,1,1,1,1,1,61,62,1,1,1,1,63,63,1,1,1,1,1,1,1,1,1,1,1,1,1,1,63,63,1,1,1,1,1,1,1,1,1,1,1,1,1,1,63,63,1,1,1,1,1,1,1,1,1,1,1,1,1,1,63,63,63,63,63,63,63,63,63,63,63,63,63,63,63,63,63,63,1,1,1,63,1,1,1,63,1,1,61,63,63,63,63,
63,1,1,1,1,1,1,1,1,1,1,1,1,1,1,63,63,1,1,1,1,1,1,1,1,1,1,1,1,1,1,63,63,1,1,1,1,1,1,1,1,1,1,1,1,1,1,63,63,61,62,1,1,1,1,1,1,1,1,61,62,1,1,63,63,1,1,1,1,1,1,1,1,1,1,1,1,1,1,63,63,63,63,1,1,1,1,1,1,1,1,1,1,1,1,63,63,64,64,64,64,64,64,64,64,64,64,64,64,64,64,63,63,1,1,1,1,1,1,1,1,1,1,1,1,1,1,63,
63,1,1,1,1,1,1,1,1,1,1,1,1,1,1,1,1,1,1,1,1,1,1,1,1,1,1,1,1,1,1,1,1,1,1,1,1,1,1,1,1,1,1,1,1,1,1,1,1,1,1,1,1,1,1,1,1,1,1,1,1,1,1,1,1,1,1,1,1,1,1,1,1,1,1,1,1,1,1,1,1,1,1,1,1,1,1,1,1,1,1,1,1,1,1,63,63,64,64,64,64,64,64,64,64,64,64,64,64,64,64,63,63,1,1,1,1,1,1,1,1,1,1,1,1,1,1,63,
63,62,61,62,61,62,61,62,61,62,61,62,61,1,1,1,1,1,1,1,1,1,1,1,1,1,1,1,1,1,1,1,1,1,1,1,1,1,1,1,1,1,1,1,1,1,1,1,1,1,1,1,1,1,1,1,1,1,1,1,1,1,1,1,1,1,1,1,1,1,1,1,1,1,1,1,1,1,1,1,1,1,1,1,1,1,1,1,1,1,1,1,1,1,1,63,63,64,64,64,64,64,64,64,64,64,64,64,64,64,64,63,63,61,62,61,62,61,62,61,62,61,62,61,62,61,62,63,
63,63,63,63,63,63,63,63,63,63,63,63,63,1,1,63,63,63,63,63,63,63,63,63,63,63,63,63,63,63,63,63,63,63,63,63,63,63,63,63,63,63,63,63,63,63,63,63,63,63,63,1,1,1,1,63,63,1,1,1,1,63,63,63,63,63,63,1,1,63,63,1,1,1,1,63,63,1,1,63,63,63,63,63,1,1,1,1,1,1,1,1,1,1,1,63,63,64,64,64,64,64,64,64,64,64,64,64,64,64,64,63,63,62,62,62,62,62,62,62,62,62,62,62,62,62,62,63
</data>
 </layer>
 <layer id="2" name="object" width="128" height="15">
  <data encoding="csv">
0,0,0,0,0,0,0,0,0,0,0,0,0,0,0,0,0,0,0,0,0,0,0,0,0,0,0,0,0,0,0,0,0,0,0,0,0,0,0,0,0,0,0,0,0,0,0,0,0,0,0,0,0,0,0,0,0,0,0,0,0,0,0,0,0,0,0,0,0,0,0,0,0,0,0,0,0,0,0,0,0,0,0,0,0,0,0,0,0,0,0,0,0,0,0,0,0,0,0,0,0,0,0,0,0,0,0,0,0,0,0,0,0,0,0,0,0,0,0,0,0,0,0,0,0,0,0,0,
0,0,0,0,0,0,0,0,0,0,0,0,0,0,0,0,0,0,0,0,0,0,0,0,0,0,0,0,0,0,0,0,0,0,0,0,0,0,0,0,0,0,0,0,0,0,0,0,0,0,0,0,0,0,0,0,0,0,0,0,0,0,0,0,0,0,0,0,0,0,0,0,0,0,0,0,0,0,0,0,0,0,0,0,0,0,0,0,0,0,0,0,0,0,0,0,0,0,0,0,0,0,0,0,0,0,0,0,0,0,0,0,0,0,0,0,0,0,0,0,0,0,0,0,0,0,0,0,
0,0,0,0,0,0,0,0,0,0,0,0,0,0,0,0,0,0,0,0,0,0,0,0,0,0,0,0,0,0,0,0,0,0,0,0,0,0,0,0,0,0,0,0,0,0,0,0,0,0,0,0,0,0,0,0,0,0,0,0,0,0,0,0,0,0,0,0,0,0,0,0,0,0,0,0,0,0,0,0,0,0,0,0,0,0,0,0,0,0,0,0,0,0,0,0,0,0,0,0,0,0,0,0,0,0,0,0,0,0,0,0,0,0,0,0,0,0,0,0,0,0,0,0,0,0,0,0,
0,0,0,0,0,0,0,0,0,0,0,0,0,0,0,0,0,0,0,0,0,0,0,0,0,0,0,0,0,0,0,0,0,0,0,0,0,0,0,0,0,0,0,0,0,0,0,0,0,0,0,0,0,0,0,0,0,0,0,0,0,0,0,0,0,0,0,0,0,0,0,0,0,0,0,0,0,0,0,0,0,0,0,0,0,0,0,0,0,0,0,0,0,0,0,0,0,0,0,0,0,0,0,0,0,0,0,0,0,0,0,0,0,0,0,0,0,0,0,0,0,0,0,0,0,0,0,0,
0,0,0,0,0,0,0,0,0,0,0,0,0,0,0,0,0,0,0,0,0,0,0,0,0,0,0,0,0,0,0,0,0,0,0,0,0,0,0,0,0,0,0,0,0,0,0,0,0,0,0,0,0,0,0,0,0,0,0,0,0,0,0,0,0,0,0,0,0,0,0,0,0,0,0,0,0,0,0,0,0,0,0,0,0,0,0,0,0,0,0,0,0,0,0,0,0,0,0,0,0,0,0,0,0,0,0,0,0,0,0,0,0,0,0,0,0,0,0,0,0,0,0,0,0,0,0,0,
0,0,0,0,0,0,0,0,0,0,0,0,0,0,0,0,0,0,0,0,0,0,0,0,0,0,0,0,0,0,0,0,0,0,0,0,0,0,0,0,0,0,0,0,0,0,0,0,0,0,0,0,0,0,0,0,0,0,0,0,0,0,0,0,0,0,0,0,0,0,0,0,0,0,0,0,0,0,0,0,0,0,0,0,0,0,0,0,0,0,0,0,0,0,0,0,0,0,0,0,0,0,0,0,0,0,0,0,0,0,0,0,0,0,0,0,0,0,0,0,0,0,0,0,0,0,0,0,
0,0,0,0,0,0,0,0,0,0,0,0,0,0,0,0,0,0,0,0,0,0,0,0,0,0,0,0,0,0,0,0,0,0,0,0,0,0,0,0,0,0,0,0,0,139,0,0,0,0,0,0,0,0,0,0,0,0,0,0,0,0,0,0,0,0,0,0,0,0,0,137,0,0,0,0,0,0,0,0,0,0,0,0,0,0,0,0,0,0,0,0,0,0,0,0,0,0,0,0,0,0,0,0,0,0,0,0,0,0,0,0,0,0,0,0,0,0,0,0,0,0,0,0,0,0,0,0,
0,0,0,0,0,0,0,0,0,0,0,0,0,0,0,0,0,0,0,0,0,0,0,0,0,0,0,0,0,0,0,0,0,0,0,0,0,0,0,0,0,0,0,0,0,0,0,0,0,0,0,0,0,0,0,0,0,0,0,0,0,0,0,0,0,0,0,0,0,0,0,0,0,0,0,0,0,0,0,0,0,0,0,0,0,0,0,0,0,0,0,0,0,0,0,0,0,0,0,0,0,0,0,0,0,0,0,0,0,0,0,0,0,0,0,0,0,0,0,0,0,0,0,0,0,152,0,0,
0,0,0,0,0,0,0,0,0,0,0,0,0,0,0,0,0,0,0,0,0,0,0,0,0,0,0,0,0,0,0,0,0,0,0,0,0,0,0,0,0,0,0,0,0,0,0,0,0,0,0,0,0,0,0,0,0,0,0,0,0,0,0,0,0,0,0,0,0,0,0,0,0,0,0,0,0,0,0,0,0,0,0,0,0,0,0,0,0,0,0,0,0,0,0,0,0,0,0,0,0,0,0,0,0,0,0,0,0,0,0,0,0,0,0,0,0,0,0,0,0,0,0,0,0,1,0,0,
0,0,0,0,0,0,0,0,0,0,0,0,0,0,0,0,0,0,0,0,0,0,0,0,0,0,0,0,0,0,0,0,0,0,0,0,0,0,0,0,0,0,0,0,0,0,0,0,0,0,0,0,0,0,0,0,0,0,0,0,0,0,0,0,0,0,0,0,0,0,0,0,0,0,0,0,0,137,0,0,0,0,0,0,0,0,0,0,0,0,0,0,0,0,0,0,0,130,0,0,0,130,0,0,0,130,0,0,0,0,0,0,0,0,0,0,0,0,0,0,0,0,0,0,0,0,0,0,
0,0,0,0,0,0,0,0,0,0,0,0,0,0,0,0,0,0,0,0,0,0,0,0,0,0,0,0,0,0,0,0,0,0,0,0,0,0,0,0,0,0,0,0,0,0,0,0,0,0,0,0,0,0,0,0,0,0,0,0,0,0,0,0,0,0,0,0,0,0,0,0,0,0,0,0,0,0,0,0,0,0,0,0,0,0,0,0,0,0,0,0,0,0,0,0,0,0,0,0,0,0,0,0,0,0,0,0,0,0,0,0,0,0,0,0,0,0,0,0,0,0,0,0,0,0,0,0,
0,0,0,0,0,0,0,0,0,0,0,0,0,0,0,0,0,0,0,0,0,0,0,0,0,0,0,0,0,0,0,0,0,0,0,0,0,0,0,0,0,0,0,0,0,0,0,0,0,0,0,0,0,0,0,0,0,0,0,0,0,0,0,0,0,0,0,0,0,0,0,0,0,0,0,0,0,0,0,0,0,0,0,0,0,0,0,0,0,0,0,0,0,0,0,0,0,0,0,0,0,0,0,0,0,0,0,0,0,0,0,0,0,0,0,0,0,0,0,0,0,0,0,0,0,0,0,0,
0,0,0,0,0,0,0,0,0,0,0,0,0,0,0,0,0,0,0,0,0,0,0,0,0,0,0,0,0,0,0,0,0,0,0,0,0,0,0,0,0,0,0,0,0,0,0,0,0,0,0,0,0,0,0,0,0,0,0,0,0,0,0,0,0,0,0,0,0,0,0,0,0,0,0,0,0,0,0,0,0,0,0,0,0,0,0,0,0,0,0,0,0,0,0,0,0,0,0,0,0,0,0,0,0,0,0,0,0,0,0,0,0,0,0,0,0,0,0,0,0,0,0,0,0,0,0,0,
0,0,0,0,0,0,0,0,0,0,0,0,0,0,0,0,0,0,0,0,0,0,0,0,0,0,0,0,0,0,0,0,0,0,0,0,0,0,0,0,0,0,0,0,0,0,0,0,0,0,0,0,0,0,0,0,0,0,0,0,0,0,0,0,0,0,0,0,0,0,0,0,0,0,0,0,0,0,0,0,0,0,0,0,0,0,0,0,0,0,0,0,0,0,0,0,0,0,0,0,0,0,0,0,0,0,0,0,0,0,0,0,0,0,0,0,0,0,0,0,0,0,0,0,0,0,0,0,
0,0,0,0,0,0,0,0,0,0,0,0,0,0,0,0,0,0,0,0,0,0,0,0,0,0,0,0,0,0,0,0,0,0,0,0,0,0,0,0,0,0,0,0,0,0,0,0,0,0,0,0,0,0,0,0,0,0,0,0,0,0,0,0,0,0,0,0,0,0,0,0,0,0,0,0,0,0,0,0,0,0,0,0,0,0,0,0,0,0,0,0,0,0,0,0,0,0,0,0,0,0,0,0,0,0,0,0,0,0,0,0,0,0,0,0,0,0,0,0,0,0,0,0,0,0,0,0
</data>
 </layer>
</map>
