<?xml version="1.0" encoding="UTF-8"?>
<map version="1.10" tiledversion="1.11.2" orientation="orthogonal" renderorder="right-down" width="128" height="15" tilewidth="16" tileheight="16" infinite="0" nextlayerid="3" nextobjectid="1">
 <editorsettings>
  <export target="level7.csv" format="csv"/>
 </editorsettings>
 <tileset firstgid="1" source="metatiles.tsx"/>
 <tileset firstgid="129" source="sprites.tsx"/>
 <layer id="1" name="main" width="128" height="15">
  <data encoding="csv">
48,48,48,48,48,48,48,48,48,48,48,48,48,48,48,48,48,48,48,48,48,48,48,48,48,48,48,48,48,48,48,48,48,48,48,48,48,48,48,48,48,48,48,48,48,48,48,48,48,48,48,48,48,48,48,48,48,48,48,48,48,48,48,48,48,48,48,48,48,48,48,48,48,48,48,48,48,48,48,48,48,48,48,48,48,48,48,48,48,48,48,48,48,48,48,48,48,48,48,48,48,48,48,48,48,48,48,48,48,48,48,48,48,48,48,48,48,48,48,48,48,48,48,48,48,48,48,48,
48,1,1,1,1,1,1,1,1,1,1,1,1,1,1,48,48,1,1,1,1,1,1,1,1,1,1,1,1,1,1,48,48,1,1,1,1,1,1,1,1,1,1,1,1,1,1,48,48,1,1,1,1,1,1,1,1,1,1,1,1,1,1,48,48,1,1,1,1,1,1,1,1,1,1,1,1,1,1,48,48,1,1,1,1,1,1,1,1,1,1,1,1,1,1,48,48,1,1,1,1,1,1,1,1,1,1,1,1,1,1,48,48,1,1,1,1,1,1,1,1,1,1,1,1,1,1,48,
48,1,1,1,1,1,1,1,1,1,1,1,1,1,1,48,48,1,1,1,1,1,1,1,1,1,1,1,1,1,1,48,48,1,1,1,1,1,1,1,1,1,1,1,1,1,1,48,48,1,1,1,1,1,1,1,1,1,1,1,1,1,1,48,48,1,1,1,1,1,1,1,1,1,1,1,1,1,1,48,48,1,1,1,1,1,1,1,1,1,1,1,1,1,1,48,48,1,1,1,1,1,1,1,1,1,1,1,1,1,1,48,48,1,1,1,1,1,1,1,1,1,1,1,1,1,1,48,
48,1,1,1,1,1,1,1,1,1,1,1,1,1,1,48,48,1,1,1,1,48,48,48,48,48,1,1,1,1,1,48,48,48,48,48,48,1,1,1,1,1,1,1,48,48,48,48,48,1,1,1,1,1,1,1,1,1,1,1,1,1,1,48,48,1,1,1,1,1,1,1,1,1,1,1,1,1,1,48,48,48,48,1,1,1,1,1,1,48,48,1,1,1,1,48,48,1,1,1,1,1,1,1,1,48,48,1,1,1,1,48,48,45,1,1,45,45,1,1,45,45,1,1,1,1,1,48,
48,1,1,1,1,1,1,1,1,1,1,1,1,1,1,1,1,1,1,1,1,1,1,1,1,48,1,1,1,1,1,48,48,1,1,1,1,1,1,1,1,1,1,1,1,1,1,1,1,1,1,1,1,1,1,1,1,1,1,1,1,1,1,48,48,1,1,1,1,1,1,1,1,1,1,1,1,1,1,48,48,1,1,1,1,1,1,1,1,1,1,1,1,1,1,48,48,1,1,1,1,1,1,1,1,1,1,1,1,1,1,48,48,1,1,1,1,1,1,1,1,1,1,1,1,1,1,48,
48,1,1,1,1,1,1,1,1,1,1,1,1,1,1,1,1,1,1,1,1,1,1,1,1,48,48,1,1,1,1,1,1,1,1,45,46,45,46,1,1,1,1,1,1,1,1,1,1,1,1,48,48,1,1,1,1,1,1,1,1,1,1,48,48,1,1,1,1,1,1,1,45,46,45,46,1,1,1,48,48,1,1,1,1,1,1,1,1,1,1,1,1,1,1,48,48,1,1,1,1,45,46,1,1,1,1,1,1,1,1,48,48,1,1,1,1,1,1,1,1,1,1,1,1,45,45,48,
48,1,1,1,1,1,1,1,1,1,1,1,48,48,48,48,48,1,1,1,1,1,1,1,1,1,48,1,1,1,1,1,1,1,1,1,1,1,1,1,1,48,48,1,1,1,1,1,1,1,1,1,1,1,1,1,1,1,1,45,46,45,46,1,1,1,1,1,1,1,1,1,1,1,1,1,1,1,1,48,48,1,1,1,1,45,46,45,46,1,1,1,1,1,1,48,48,1,1,48,48,1,1,1,1,48,48,1,1,1,1,48,48,1,1,1,1,1,1,1,1,1,1,1,1,1,1,48,
48,1,1,1,1,1,1,1,1,1,1,1,1,1,1,1,1,1,1,45,46,45,46,1,1,1,48,48,1,1,1,1,1,1,1,1,1,1,1,1,1,1,1,1,1,1,1,48,48,48,1,1,1,1,1,1,1,1,1,1,1,1,1,1,1,1,1,1,1,1,1,1,1,1,1,1,1,48,48,48,48,1,1,1,1,1,1,1,1,1,1,45,46,1,1,1,1,1,1,1,1,1,1,1,1,1,1,1,1,1,1,48,48,1,1,1,1,1,1,1,1,1,1,1,1,1,1,48,
48,1,1,1,1,1,1,45,46,45,46,1,1,1,1,1,1,1,1,1,1,1,1,1,1,1,1,48,48,1,1,1,1,45,46,1,1,1,1,1,1,1,1,1,1,48,48,1,1,1,1,1,1,1,45,46,45,46,1,1,1,1,1,1,45,46,1,1,1,1,1,1,1,1,48,48,1,1,1,1,1,1,1,1,1,1,1,1,1,1,1,1,1,1,1,1,1,45,46,1,1,1,1,1,45,46,1,1,1,1,1,48,48,1,1,1,1,1,45,46,45,46,45,1,1,1,1,48,
48,1,1,1,1,1,1,1,1,1,1,1,1,1,1,1,1,1,1,1,1,1,1,48,48,1,1,1,48,1,1,1,1,1,1,1,1,1,1,45,46,1,1,1,1,1,1,1,1,1,1,1,1,1,1,1,1,1,1,1,1,1,1,1,1,1,1,1,1,1,1,45,46,1,1,1,1,1,1,1,1,1,1,45,46,1,1,1,1,1,1,1,1,1,1,48,48,1,1,1,1,1,1,1,1,1,1,1,1,1,1,48,48,1,1,1,1,1,1,1,1,1,1,1,1,1,1,48,
48,1,1,1,1,1,1,1,1,1,1,1,1,1,1,48,48,1,1,1,1,1,1,1,1,1,1,1,48,48,1,1,1,1,1,1,1,1,1,1,1,1,1,1,1,1,1,1,1,1,1,1,1,1,1,1,1,1,1,1,1,1,1,1,1,1,1,1,1,1,1,1,1,1,1,1,1,1,1,1,1,1,1,1,1,1,1,1,1,48,48,1,1,1,1,1,1,1,1,1,1,1,1,1,1,48,48,1,1,1,1,48,48,1,1,1,1,1,1,1,1,1,1,1,1,45,45,48,
48,1,1,1,1,1,1,1,1,1,1,1,1,1,1,48,48,48,1,1,1,1,1,1,1,1,1,1,1,48,48,48,48,1,1,1,1,1,1,1,1,1,1,48,48,48,48,48,48,1,1,1,1,1,1,1,1,1,1,1,1,48,48,48,48,1,1,1,1,1,1,1,1,1,48,48,48,48,1,1,1,1,1,1,1,1,1,1,1,1,1,1,1,48,48,48,48,1,1,1,1,1,1,1,1,1,1,48,48,48,48,1,1,1,1,1,1,1,1,1,1,1,1,1,1,1,1,48,
48,1,1,1,1,1,1,1,1,1,1,1,1,1,1,48,48,1,1,1,1,1,1,1,1,1,1,1,1,1,1,1,1,1,1,1,1,1,1,1,1,1,1,1,1,1,1,1,1,1,1,1,1,1,1,1,1,1,1,1,1,1,1,1,1,1,1,1,1,1,1,1,1,1,1,1,1,1,1,1,1,1,1,1,1,1,1,1,1,1,1,1,1,1,1,1,1,1,1,1,1,1,1,1,1,1,1,1,1,1,1,1,1,1,1,1,1,1,1,1,1,1,1,1,1,1,1,48,
48,46,45,46,45,46,45,46,45,46,45,46,45,48,48,48,48,45,46,45,46,45,46,1,1,45,46,45,46,45,46,48,48,45,46,45,46,45,46,45,46,45,46,1,1,45,46,48,48,45,46,45,46,45,46,45,46,45,46,45,46,45,46,48,48,45,46,45,46,45,46,45,46,0,1,1,46,45,46,48,48,45,46,45,46,45,46,45,45,45,46,45,46,45,46,48,48,45,46,45,46,45,46,45,46,45,45,45,46,45,46,48,48,45,46,45,46,45,46,45,46,45,46,45,46,45,46,48,
48,48,48,48,48,48,48,48,48,48,48,48,48,48,48,48,48,48,48,48,48,48,48,48,48,48,48,48,48,48,48,48,48,48,48,48,48,48,48,48,48,48,48,48,48,48,48,48,48,48,48,48,48,48,48,48,48,48,48,48,48,48,48,48,48,48,48,48,48,48,48,48,48,48,48,48,48,48,48,48,48,48,48,48,48,48,48,48,48,48,48,48,48,48,48,48,48,48,48,48,48,48,48,48,48,48,48,48,48,48,48,48,48,48,48,48,48,48,48,48,48,48,48,48,48,48,48,48
</data>
 </layer>
 <layer id="2" name="object" width="128" height="15">
  <data encoding="csv">
0,0,0,0,0,0,0,0,0,0,0,0,0,0,0,0,0,0,0,0,0,0,0,0,0,0,0,0,0,0,0,0,0,0,0,0,0,0,0,0,0,0,0,0,0,0,0,0,0,0,0,0,0,0,0,0,0,0,0,0,0,0,0,0,0,0,0,0,0,0,0,0,0,0,0,0,0,0,0,0,0,0,0,0,0,0,0,0,0,0,0,0,0,0,0,0,0,0,0,0,0,0,0,0,0,0,0,0,0,0,0,0,0,0,0,0,0,0,0,0,0,0,0,0,0,0,0,0,
0,0,0,0,0,0,0,0,0,0,0,0,0,0,0,0,0,0,0,0,0,0,0,0,0,0,0,0,0,0,0,0,0,0,0,0,0,0,0,0,0,0,0,0,0,0,0,0,0,0,0,0,0,0,0,0,0,0,0,0,0,0,0,0,0,0,0,0,0,0,0,0,0,0,0,0,0,0,0,0,0,0,0,0,0,0,0,0,0,0,0,0,0,0,0,0,0,0,0,0,0,0,0,0,0,0,0,0,0,0,0,0,0,0,0,0,0,0,0,0,0,0,0,0,0,0,0,0,
0,0,0,0,0,0,0,0,0,0,0,0,0,0,0,0,0,0,0,0,0,0,0,0,0,0,0,0,0,0,0,0,0,0,0,0,0,0,0,0,0,0,0,0,0,0,0,0,0,0,0,0,0,0,0,0,0,0,0,0,0,0,0,0,0,0,0,0,0,0,0,0,0,0,0,0,0,0,0,0,0,0,0,0,0,0,0,0,0,0,0,0,0,0,0,0,0,0,0,0,0,0,0,0,0,0,0,0,0,0,0,0,0,81,0,0,0,0,0,0,0,0,0,0,0,0,0,0,
0,0,0,0,0,0,0,0,0,0,0,0,0,0,0,0,0,0,0,0,0,0,0,0,0,0,0,0,0,0,0,0,0,0,0,0,0,0,0,0,0,0,0,0,0,0,0,0,0,0,0,0,0,137,0,0,0,0,0,0,0,0,0,0,0,0,0,0,0,0,0,0,0,0,0,0,0,0,0,0,0,0,0,0,0,0,0,0,0,0,0,0,0,0,0,0,0,0,0,0,0,0,0,0,0,0,0,0,0,0,0,0,0,0,0,0,0,0,0,0,0,0,0,0,0,0,0,0,
0,0,0,0,0,0,0,0,0,130,0,0,0,0,0,0,0,0,0,0,0,0,0,0,0,0,0,0,0,0,0,0,0,0,0,0,0,130,0,0,0,0,0,0,0,0,0,0,0,0,0,0,0,0,0,0,0,0,0,0,0,0,0,0,0,0,0,0,0,0,0,0,0,0,0,0,0,0,0,0,0,0,0,0,0,0,0,0,0,0,0,0,0,0,0,0,0,0,0,0,0,0,0,0,0,0,0,0,0,0,0,0,0,0,0,0,0,0,0,0,0,0,0,0,0,0,0,0,
0,0,0,0,0,0,0,0,0,0,0,0,0,0,0,0,0,0,0,0,0,0,0,0,0,0,0,0,0,0,0,0,0,0,0,0,0,0,0,0,0,0,0,0,0,0,0,0,0,0,0,0,0,0,0,0,0,0,0,130,0,130,0,0,0,0,0,0,0,0,0,0,0,0,0,0,0,0,0,0,0,0,0,0,0,130,0,130,0,0,0,0,0,0,0,0,0,0,0,0,0,0,0,0,0,0,0,0,0,0,0,0,0,0,0,0,0,0,0,0,0,0,0,0,0,0,0,0,
0,0,0,0,0,0,0,0,0,0,0,0,0,0,0,0,0,0,0,0,0,0,0,0,0,0,0,0,0,0,0,0,0,0,0,0,0,0,0,0,0,0,0,139,0,0,0,0,0,0,0,0,0,0,0,0,0,0,0,0,0,0,0,0,0,0,0,0,0,0,0,0,0,0,0,0,0,0,0,0,0,0,0,0,0,0,0,0,0,0,0,0,0,0,0,0,0,0,0,0,0,0,0,0,0,0,0,0,0,0,0,0,0,0,0,0,0,0,0,0,0,0,0,0,0,0,0,0,
0,0,0,0,0,0,0,0,0,0,0,0,0,0,0,0,0,0,0,130,0,130,0,0,0,0,0,0,0,0,0,0,0,0,0,0,0,0,0,0,0,0,0,0,0,0,0,0,0,0,0,0,0,0,0,0,0,0,0,0,0,0,0,0,0,0,0,137,0,0,0,0,0,0,0,0,0,0,0,0,0,0,0,0,0,0,0,0,0,0,0,130,0,0,0,0,0,0,0,0,0,0,0,0,0,0,0,0,0,0,0,0,0,0,0,0,0,0,0,0,0,0,0,0,0,0,0,0,
0,0,0,0,0,0,0,0,0,0,0,0,0,0,0,0,0,0,0,0,0,0,0,0,0,0,0,0,0,0,0,0,0,0,0,0,0,0,0,0,0,0,0,0,0,0,0,0,0,0,0,0,0,0,130,0,130,0,0,0,0,0,0,0,0,0,0,0,0,0,0,0,0,0,0,0,0,0,0,0,0,0,0,0,0,0,0,0,0,0,0,0,0,0,0,0,0,130,0,0,0,0,0,0,0,0,0,0,0,0,0,0,0,0,0,0,0,0,0,0,0,0,0,0,0,0,0,0,
0,0,0,0,0,0,0,0,0,0,0,0,0,0,0,0,0,0,0,0,0,0,0,0,0,0,0,0,0,0,0,0,0,0,0,0,0,0,0,140,0,0,0,0,0,0,0,0,0,0,0,0,0,0,0,0,0,0,0,0,0,0,0,0,0,0,0,0,0,0,0,0,0,0,0,0,0,0,0,0,0,0,0,0,0,0,0,0,0,0,0,0,0,0,0,0,0,0,0,0,0,0,0,0,0,0,0,0,0,0,0,0,0,0,0,0,0,0,0,0,0,0,0,0,0,0,0,0,
0,0,0,0,0,0,0,0,0,0,0,0,0,0,0,0,0,0,0,0,0,0,0,0,0,0,0,0,0,0,0,0,0,0,0,0,0,0,0,0,0,0,0,0,0,0,0,0,0,0,0,0,0,0,0,0,0,0,0,0,0,0,0,0,0,0,0,0,0,0,0,0,0,0,0,0,0,0,0,0,0,0,0,0,0,0,0,0,0,0,0,0,0,0,0,0,0,0,0,0,0,0,0,0,0,0,0,0,0,0,0,0,0,0,0,0,0,0,0,0,0,0,0,0,0,0,0,0,
0,0,0,0,0,0,0,0,0,0,0,0,0,0,0,0,0,0,0,0,0,0,0,0,0,0,0,0,0,0,0,0,0,0,0,0,0,139,0,0,0,0,0,0,0,0,0,0,0,0,0,0,0,0,0,0,0,0,0,0,0,0,0,0,0,0,0,0,0,0,0,0,0,0,0,0,0,0,0,0,0,0,0,0,0,0,0,0,0,0,0,0,0,0,0,0,0,0,0,0,0,0,0,0,0,0,0,0,0,0,0,0,0,0,0,0,0,0,0,0,0,0,0,0,0,0,0,0,
0,0,0,0,0,0,0,0,0,0,0,0,0,0,0,0,0,0,0,0,0,0,0,0,0,0,0,0,0,0,0,0,0,0,0,0,0,0,0,0,0,0,0,0,0,0,0,0,0,0,0,0,0,0,0,140,140,0,0,0,0,0,0,0,0,0,0,0,0,0,0,0,0,0,0,0,0,0,0,0,0,0,0,0,0,0,0,0,0,0,0,0,0,0,0,0,0,0,0,0,0,0,0,0,0,140,140,0,0,0,0,0,0,0,0,0,0,0,0,0,0,0,0,0,0,0,0,0,
0,0,0,0,0,0,0,0,0,0,0,0,0,0,0,0,0,0,0,0,0,0,0,0,0,0,0,0,0,0,0,0,0,0,0,0,0,0,0,0,0,0,0,0,0,0,0,0,0,0,0,0,0,0,0,0,0,0,0,0,0,0,0,0,0,0,0,0,0,0,0,0,0,137,0,0,0,0,0,0,0,0,0,0,0,0,0,0,0,0,0,0,0,0,0,0,0,0,0,0,0,0,0,0,0,0,0,0,0,0,0,0,0,0,0,0,0,0,0,0,0,0,0,0,0,0,0,0,
0,0,0,0,0,0,0,0,0,0,0,0,0,0,0,0,0,0,0,0,0,0,0,0,0,0,0,0,0,0,0,0,0,0,0,0,0,0,0,0,0,0,0,0,0,0,0,0,0,0,0,0,0,0,0,0,0,0,0,0,0,0,0,0,0,0,0,0,0,0,0,0,0,0,0,0,0,0,0,0,0,0,0,0,0,0,0,0,0,0,0,0,0,0,0,0,0,0,0,0,0,0,0,0,0,0,0,0,0,0,0,0,0,0,0,0,0,0,0,0,0,0,0,0,0,0,0,0
</data>
 </layer>
</map>
